X:1
T:O liete piante
T:Luca Marenzio
T:Source : Il primo libro delle Villanelle a tre voci---Venetia---G.Vincenzi---1586. Editor: André Vierendeels (10/05/17).
T:Notes : Original clefs : C1, C2, F4 Editorial accidentals above the staff "Terza impressione"
T:O liete piante
T:©
T:©
C:Luca Marenzio
Z:©
%%score [ 1 2 3 ]
L:1/8
Q:1/4=120
M:4/4
K:F
V:1 treble nm="Soprano 1" snm="S 1"
V:2 treble nm="Soprano 2" snm="S 2"
V:3 bass nm="Bass" snm="B"
V:1
"^1)" A4 B2 c2 | d4 c2 c2- | c2 f2 e2 e2 | d4 c4 :: c2 cc c2 B2 | A3 A A2 G2 | A4 A4 | %7
w: O lie- te|pian- te'her- bett'|_ e bian- chi|fio- ri,|can- di- di gi- gli'e|pal- li- de vi-|o- le,|
w: Om- bro- si|fag- gi'al- ti|_ no- do- si|mir- ti,|os- cu- re grot- te'in-|ha- bi- ta- te|so- le,|
 d2 cB A2 B2 | c4 B4 | z4 e2 dc | B2 c2 d4- | d4 c2 c2- | c2 A2 G4 | A8 :| %14
w: di- te- mi do- v'è|gi- to,|di- te- mi|do- v'è gi-|* to'il mio|_ bel so-|le.|
w: co- me pri- ve vi-|ve- te|co- me pri-|ve vi- ve-|* te del|_ mio so-|le.|
V:2
"^2)""^1)" C4 D2 E2 | F4 A2 A2- | A2 d2 c2 c2 | =B4 c4 :: A2 AA A2 G2 | ^F3 E F2 G2 | ^F4 F4 | %7
w: O lie- te|pian- te'her- bett'|_ e bian- chi|fio- ri,|can- di- di gi- gli'e|pal- li- de vi-|o- le,|
w: Or- na- ti|mir- ti'e voi|_ schiet- ti'ar- bor-|scel- li,|che sta- te'ad as- col-|ta- re'i miei la-|men- ti,|
"^-natural" z4 A2 GF | E2 F2 G4 | A4 c2 BA | G2 A2 B4- | B4 A2 A2- | A2 F2 E4 | F8 :| %14
w: di- te- mi|do- v'è gi-|to, di- te- mi|do- v'è gi-|* tioil mio|_ bel so-|le.|
w: con- sta- te'al|mio bel so-|le, con- sta- te'al|mio bel so-|* le quest'|_ l'ac- cen-|ti.|
V:3
"^3)""^1)""^4)" F,4 D,2 C,2 | B,,4 F,2 F,2- | F,2 D,2 E,3 F, | G,4 C,4 :: F,2 F,F, F,2 G,2 | %5
w: O lie- te|pian- te'her- bett'|_ e bian- chi|fio- ri,|can- di- di gi- gli'e|
w: A la fres-|ch'au- ra fè|_ da me par-|ti- ta,|e mi las- cio senz'|
 D,3 C, D,2 _E,2 | D,4 D,4 |"^-natural" B,2 A,G, F,2 G,2 | A,4 G,4 | F,2 E,D, C,2 D,2 | _E,4 B,,4 | %11
w: pal- li- de vi-|o- le,|di- te- mi do- v'e|gi- to,|di- te- mi do- v'e|gi- to'il|
w: al- ma'e sen- za|vi- ta:|Deh tor- na'o mio bel|so- le,|deh tor- na'o mio bel|so- le'à|
"^-natural" B,,C,D,E, F,2 F,,2 | A,,3 B,, C,4 | F,,8 :| %14
w: mio _ _ _ _ bel|so- * *|le.|
w: dar- * * * * ml'a-|i- * *|ta.|

